X: 1
T: The Lass of Patie's Mill v.1
P: piffero primo a0710
O: John Gay
%R: reel, march
F: http://ancients.sudburymuster.org/mus/sng/pdf/lassofpatieC0.pdf
Z: 2020 John Chambers <jc:trillian.mit.edu>
M: 2/4
L: 1/16
K: D
A2 |\
(GF)ED F2A2 | d3e f2A2 | (Bc)dc (BA)GF | (TF4 E2)A2 |\
(GF)ED F2A2 | d3e f2A2 | (Bc)dB [1 (cd)ec | d6 :|[2 (cd)ef | d6 |: ef |
(gf)ed (dc)BA | d3e f2A2 | (Bc)dc (BA)GF | (TF4 E2)A2 |\
(GF)ED F2A2 | d3e f2A2 |(Bc)dB [1 (cd)ec | d6 :|[2 (cd)ef | d6 |]


